static/image/About/BTC.svg

<svg width="64" height="64" viewBox="0 0 64 64" fill="none" xmlns="http://www.w3.org/2000/svg">
<path d="M63.7342 31.9994C63.7342 49.5867 49.4777 63.8432 31.8904 63.8432C14.3033 63.8432 0.0465088 49.5867 0.0465088 31.9994C0.0465088 14.4123 14.3033 0.155487 31.8904 0.155487C49.4777 0.155487 63.7342 14.4123 63.7342 31.9994Z" fill="#F7931A"/>
<path d="M39.6221 41.3061C39.4922 41.747 39.2761 42.1577 38.9863 42.5145C38.6965 42.8713 38.3387 43.167 37.9337 43.3845C37.5301 43.6045 37.0868 43.7422 36.6296 43.7897C36.1723 43.8371 35.7102 43.7934 35.27 43.6609L26.3024 40.9902L28.3003 34.2829L37.2672 36.9539H37.2676C39.1164 37.5045 40.173 39.4569 39.6221 41.3061ZM42.6466 27.5606C42.8664 27.9644 43.004 28.4078 43.0513 28.865C43.0987 29.3223 43.055 29.7844 42.9227 30.2247C42.3718 32.0732 40.4185 33.1292 38.5706 32.5796H38.5703L29.6031 29.9088L31.6003 23.2015L40.5679 25.8723C41.0088 26.0023 41.4195 26.2184 41.7764 26.5082C42.1332 26.798 42.429 27.1558 42.6466 27.5606V27.5606ZM46.6609 25.3889C45.6358 23.4945 43.9344 22.1125 41.8706 21.4979L40.6841 21.1447L42.3451 15.5676L38.0834 14.2983L36.4224 19.8754L32.7839 18.7918L34.4452 13.2147L33.4243 12.9106L29.2884 11.6788L27.6873 17.0547L22.6471 15.5536L21.2246 20.3302L26.2649 21.8316L21.0867 39.2177L16.0465 37.7166L14.624 42.4935L19.664 43.9943L18.3128 48.5317L19.3334 48.8358L23.4693 50.0676L24.8806 45.3289L28.5277 46.4151L27.1164 51.1541L31.3608 52.4183L32.7722 47.6793L33.9669 48.035C34.7174 48.2592 35.4965 48.3735 36.2798 48.3741C37.6013 48.3741 38.9104 48.0458 40.1055 47.3991C41.9999 46.374 43.3816 44.6729 43.9965 42.6085C44.6429 40.437 44.3238 38.2064 43.2956 36.3703C45.1623 35.3961 46.6497 33.6998 47.2968 31.5274C47.9117 29.463 47.6856 27.283 46.6609 25.3889" fill="white"/>
</svg>

<svg xmlns="http://www.w3.org/2000/svg" width="64" height="64" fill="none" viewBox="0 0 64 64"><path fill="#F7931A" d="M63.734 32c0 17.587-14.256 31.843-31.844 31.843C14.303 63.843.047 49.587.047 32 .047 14.412 14.303.155 31.89.155 49.478.155 63.734 14.412 63.734 32Z"/><path fill="#fff" d="M39.622 41.306a3.474 3.474 0 0 1-1.688 2.079 3.475 3.475 0 0 1-2.664.276l-8.968-2.67 1.998-6.708 8.967 2.67a3.503 3.503 0 0 1 2.355 4.353Zm3.025-13.745a3.477 3.477 0 0 1 .276 2.664 3.505 3.505 0 0 1-4.352 2.355l-8.968-2.671 1.997-6.707 8.968 2.67a3.477 3.477 0 0 1 2.079 1.689Zm4.014-2.172a8.011 8.011 0 0 0-4.79-3.891l-1.187-.353 1.661-5.577-4.262-1.27-1.66 5.577-3.64-1.083 1.662-5.577-1.02-.304-4.137-1.232-1.6 5.376-5.04-1.501-1.423 4.776 5.04 1.502-5.178 17.386-5.04-1.501-1.423 4.776 5.04 1.501-1.351 4.538 1.02.304 4.136 1.232 1.412-4.74 3.647 1.087-1.412 4.74 4.245 1.263 1.411-4.739 1.195.356a8.02 8.02 0 0 0 6.139-.636 8.011 8.011 0 0 0 3.89-4.79 8.036 8.036 0 0 0-.7-6.239 8.04 8.04 0 0 0 4-4.843 8.01 8.01 0 0 0-.635-6.138"/></svg>
